icons/stack.svg

<svg width="24" height="24" viewBox="0 0 24 24" fill="none" xmlns="http://www.w3.org/2000/svg">
<path fill-rule="evenodd" clip-rule="evenodd" d="M11.5528 2.10557C11.8343 1.96481 12.1657 1.96481 12.4472 2.10557L21.4472 6.60557C21.786 6.77496 22 7.12123 22 7.5C22 7.87877 21.786 8.22504 21.4472 8.39443L12.4472 12.8944C12.1657 13.0352 11.8343 13.0352 11.5528 12.8944L2.55276 8.39443C2.21398 8.22504 1.99997 7.87877 1.99997 7.5C1.99997 7.12123 2.21398 6.77496 2.55276 6.60557L11.5528 2.10557ZM5.23604 7.5L12 10.882L18.7639 7.5L12 4.11803L5.23604 7.5ZM2.10555 11.5528C2.35254 11.0588 2.95321 10.8586 3.44719 11.1056L12 15.382L20.5528 11.1056C21.0467 10.8586 21.6474 11.0588 21.8944 11.5528C22.1414 12.0468 21.9412 12.6474 21.4472 12.8944L12.4472 17.3944C12.1657 17.5352 11.8343 17.5352 11.5528 17.3944L2.55276 12.8944C2.05878 12.6474 1.85856 12.0468 2.10555 11.5528ZM2.10555 16.0528C2.35254 15.5588 2.95321 15.3586 3.44719 15.6056L12 19.882L20.5528 15.6056C21.0467 15.3586 21.6474 15.5588 21.8944 16.0528C22.1414 16.5468 21.9412 17.1474 21.4472 17.3944L12.4472 21.8944C12.1657 22.0352 11.8343 22.0352 11.5528 21.8944L2.55276 17.3944C2.05878 17.1474 1.85856 16.5468 2.10555 16.0528Z" fill="black"/>
</svg>

<svg
  width="24"
  height="24"
  viewBox="0 0 24 24"
  xmlns="http://www.w3.org/2000/svg"
>
  <path
    fill-rule="evenodd"
    clip-rule="evenodd"
    d="M11.553 2.106a1 1 0 0 1 .894 0l9 4.5a1 1 0 0 1 0 1.788l-9 4.5a1 1 0 0 1-.894 0l-9-4.5a1 1 0 0 1 0-1.788l9-4.5zM5.236 7.5L12 10.882 18.764 7.5 12 4.118 5.236 7.5zm-3.13 4.053a1 1 0 0 1 1.341-.447L12 15.382l8.553-4.276a1 1 0 1 1 .894 1.788l-9 4.5a1 1 0 0 1-.894 0l-9-4.5a1 1 0 0 1-.447-1.341zm0 4.5a1 1 0 0 1 1.341-.447L12 19.882l8.553-4.276a1 1 0 1 1 .894 1.788l-9 4.5a1 1 0 0 1-.894 0l-9-4.5a1 1 0 0 1-.447-1.341z"
  />
</svg>
